Yaru++/actions/16/object-ungroup.svg

<svg viewBox="0 0 24 24" xmlns="http://www.w3.org/2000/svg">
  <path d="m2 2v3h1v-2h2v-1zm17 0v1h2v2h1v-3zm-11.375 2.5c-1.7258898 0-3.125 1.3991102-3.125 3.125s1.3991102 3.125 3.125 3.125 3.125-1.3991102 3.125-3.125-1.3991102-3.125-3.125-3.125zm5.625 0v6.25h6.25v-6.25zm-7.5 8.75v6.25h3.75v-6.25zm10.625 0-3.125 6.25h6.25zm-14.375 5.75v3h3v-1h-2v-2zm19 0v2h-2v1h3v-3z" fill="#808080"/>
</svg>

<svg xmlns="http://www.w3.org/2000/svg" version="1.1" viewBox="0 0 24 24">
 <defs>
  <style id="current-color-scheme" type="text/css">
   .ColorScheme-Text { color:#808080; }
  </style>
 </defs>
 <path style="fill:currentColor" class="ColorScheme-Text" d="M 2 2 L 2 5 L 3 5 L 3 3 L 5 3 L 5 2 L 2 2 z M 19 2 L 19 3 L 21 3 L 21 5 L 22 5 L 22 2 L 19 2 z M 7.625 4.5 C 5.8991102 4.5 4.5 5.8991102 4.5 7.625 C 4.5 9.3508898 5.8991102 10.75 7.625 10.75 C 9.3508898 10.75 10.75 9.3508898 10.75 7.625 C 10.75 5.8991102 9.3508898 4.5 7.625 4.5 z M 13.25 4.5 L 13.25 10.75 L 19.5 10.75 L 19.5 4.5 L 13.25 4.5 z M 5.75 13.25 L 5.75 19.5 L 9.5 19.5 L 9.5 13.25 L 5.75 13.25 z M 16.375 13.25 L 13.25 19.5 L 19.5 19.5 L 16.375 13.25 z M 2 19 L 2 22 L 5 22 L 5 21 L 3 21 L 3 19 L 2 19 z M 21 19 L 21 21 L 19 21 L 19 22 L 22 22 L 22 19 L 21 19 z"/>
</svg>
